X: 1
T: Jimmy O'Reilly's
M: 4/4
L: 1/8
R: reel
K: Ador
|:ABAG EGDE|G2 BG cGBG|ABAG EG D2|egdB{^c} BAAG|
|ABAG EGDE|G2 BG cGBG|ABAG EG D2|egdB{^c} BA A2:||
|:ageg a3 b|ge (3eee ~g3b|ageg a2 ga|b~g3 bg{a} g2|
|agea{b} agea|gedB G3 z|eaag (3efg fa|1 gedB{^c} BA A2:|2 gedB{^c} BAAG||
